shared/.icons/Vimix-White/symbolic/actions/edit-clear-symbolic.svg

<svg width="16" height="16" version="1.1" xmlns="http://www.w3.org/2000/svg">
 <path d="m5 2-5 6 5 6h11v-12h-11zm0.9375 2h8.0625v8h-8.0625l-3.334-4 3.334-4z" fill="#555555"/>
 <path d="m7 5h1c0.28 0 0.53 0.11 0.71 0.29l1.29 1.3 1.29-1.3c0.18-0.18 0.43-0.29 0.71-0.29h1v1c0 0.28-0.11 0.53-0.29 0.71l-1.3 1.29 1.3 1.29c0.18 0.18 0.29 0.43 0.29 0.71v1h-1c-0.28 0-0.53-0.11-0.71-0.29l-1.29-1.3-1.29 1.3c-0.18 0.18-0.43 0.29-0.71 0.29h-1v-1c0-0.28 0.11-0.53 0.29-0.71l1.3-1.29-1.3-1.29c-0.18-0.18-0.29-0.43-0.29-0.71z" fill="#555555"/>
</svg>

<svg xmlns="http://www.w3.org/2000/svg" width="16" height="16" version="1.1">
 <path style="fill:#555555" d="M 5,2 0,8 5,14 H 16 V 2 Z M 7,5 H 8 C 8.28,5 8.53,5.11 8.71,5.29 L 10,6.59 11.29,5.29 C 11.47,5.11 11.72,5 12,5 H 13 V 6 C 13,6.28 12.89,6.53 12.71,6.71 L 11.41,8 12.71,9.29 C 12.89,9.47 13,9.72 13,10 V 11 H 12 C 11.72,11 11.47,10.89 11.29,10.71 L 10,9.41 8.71,10.71 C 8.53,10.89 8.28,11 8,11 H 7 V 10 C 7,9.72 7.11,9.47 7.29,9.29 L 8.59,8 7.29,6.71 C 7.11,6.53 7,6.28 7,6 Z"/>
</svg>
